build/images/content/features/icon_9.svg

<svg width="70" height="70" viewBox="0 0 70 70" fill="none" xmlns="http://www.w3.org/2000/svg">
<path d="M65.4002 58.1L56.7002 40.8C59.5002 36.6 61.2002 31.6 61.2002 26.2C61.2002 11.7 49.5002 0 35.1002 0C20.7002 0 8.90017 11.7 8.90017 26.2C8.90017 31.6 10.6002 36.7 13.4002 40.8L4.70017 58.1C4.40017 58.7 4.40017 59.5 4.80017 60.1C5.20017 60.7 5.80017 61.1 6.50017 61.1H16.4002L22.4002 69.1C22.8002 69.6 23.4002 69.9 24.0002 69.9C24.8002 69.9 25.5002 69.4 25.8002 68.8L34.0002 52.4C34.3002 52.4 34.6002 52.4 34.9002 52.4C35.2002 52.4 35.5002 52.4 35.8002 52.4L44.0002 68.8C44.3002 69.4 45.0002 69.9 45.8002 69.9C46.4002 69.9 47.0002 69.6 47.4002 69.1L53.4002 61.1H63.3002C64.0002 61.1 64.7002 60.7 65.0002 60.1C65.7002 59.5 65.7002 58.8 65.4002 58.1ZM23.7002 63.9L19.1002 57.8C18.7002 57.3 18.1002 57 17.5002 57H9.90017L16.3002 44.3C19.9002 48 24.6002 50.7 29.9002 51.8L23.7002 63.9ZM13.0002 26.2C13.0002 14 22.9002 4.1 35.1002 4.1C47.3002 4.1 57.1002 14 57.1002 26.2C57.1002 38.4 47.2002 48.3 35.0002 48.3C22.8002 48.3 13.0002 38.3 13.0002 26.2ZM52.6002 57C52.0002 57 51.3002 57.3 51.0002 57.8L46.4002 63.9L40.3002 51.8C45.6002 50.7 50.3002 48 53.9002 44.3L60.2002 57H52.6002Z" fill="#4283D0"/>
<path d="M45.5009 29.5998L51.2009 22.7998C51.7009 22.2998 51.8009 21.4998 51.6009 20.8998C51.4009 20.1998 50.8009 19.6998 50.2009 19.4998L41.6009 17.2998L36.9009 9.7998C36.5009 9.1998 35.9009 8.7998 35.2009 8.7998C34.5009 8.7998 33.8009 9.1998 33.5009 9.7998L28.8009 17.2998L20.0009 19.3998C19.3009 19.5998 18.8009 20.0998 18.5009 20.7998C18.3009 21.4998 18.4009 22.1998 18.9009 22.6998L24.6009 29.4998L24.0009 38.3998C24.0009 39.0998 24.3009 39.7998 24.8009 40.1998C25.7009 40.7998 26.5009 40.4998 26.8009 40.3998L35.1009 37.0998L43.4009 40.3998C44.1009 40.6998 44.8009 40.5998 45.4009 40.1998C46.0009 39.7998 46.3009 39.0998 46.2009 38.3998L45.5009 29.5998ZM41.8009 27.5998C41.5009 27.9998 41.3009 28.4998 41.3009 29.0998L41.7009 35.4998L35.7009 33.0998C35.0009 32.7998 34.5009 32.9998 34.2009 33.0998L28.2009 35.4998L28.6009 29.0998C28.6009 28.5998 28.5009 27.9998 28.1009 27.5998L24.0009 22.6998L30.3009 21.0998C30.8009 20.9998 31.3009 20.5998 31.5009 20.1998L34.9009 14.6998L38.3009 20.1998C38.6009 20.5998 39.0009 20.9998 39.5009 21.0998L45.8009 22.6998L41.8009 27.5998Z" fill="#4283D0"/>
</svg>

<svg width="70" height="70" fill="none" xmlns="http://www.w3.org/2000/svg"><path d="M65.4 58.1l-8.7-17.3c2.8-4.2 4.5-9.2 4.5-14.6C61.2 11.7 49.5 0 35.1 0 20.7 0 8.9 11.7 8.9 26.2a26 26 0 004.5 14.6L4.7 58.1c-.3.6-.3 1.4.1 2 .4.6 1 1 1.7 1h9.9l6 8c.4.5 1 .8 1.6.8.8 0 1.5-.5 1.8-1.1L34 52.4h1.8L44 68.8c.3.6 1 1.1 1.8 1.1.6 0 1.2-.3 1.6-.8l6-8h9.9c.7 0 1.4-.4 1.7-1 .7-.6.7-1.3.4-2zm-41.7 5.8l-4.6-6.1c-.4-.5-1-.8-1.6-.8H9.9l6.4-12.7c3.6 3.7 8.3 6.4 13.6 7.5l-6.2 12.1zM13 26.2C13 14 22.9 4.1 35.1 4.1c12.2 0 22 9.9 22 22.1 0 12.2-9.9 22.1-22.1 22.1-12.2 0-22-10-22-22.1zM52.6 57c-.6 0-1.3.3-1.6.8l-4.6 6.1-6.1-12.1c5.3-1.1 10-3.8 13.6-7.5L60.2 57h-7.6z" fill="#4283D0"/><path d="M45.5 29.6l5.7-6.8c.5-.5.6-1.3.4-1.9-.2-.7-.8-1.2-1.4-1.4l-8.6-2.2-4.7-7.5c-.4-.6-1-1-1.7-1s-1.4.4-1.7 1l-4.7 7.5-8.8 2.1c-.7.2-1.2.7-1.5 1.4-.2.7-.1 1.4.4 1.9l5.7 6.8-.6 8.9c0 .7.3 1.4.8 1.8.9.6 1.7.3 2 .2l8.3-3.3 8.3 3.3c.7.3 1.4.2 2-.2.6-.4.9-1.1.8-1.8l-.7-8.8zm-3.7-2c-.3.4-.5.9-.5 1.5l.4 6.4-6-2.4c-.7-.3-1.2-.1-1.5 0l-6 2.4.4-6.4c0-.5-.1-1.1-.5-1.5L24 22.7l6.3-1.6c.5-.1 1-.5 1.2-.9l3.4-5.5 3.4 5.5c.3.4.7.8 1.2.9l6.3 1.6-4 4.9z" fill="#4283D0"/></svg>
